;FLAVOR:Marlin
;TIME:747
;Filament used: 0.240623m
;Layer height: 0.1
;Generated with Cura_SteamEngine 3.2.1
M190 S65
M104 S200
M109 S200
M82 ;absolute extrusion mode
G21 ;metric values
G90 ;absolute positioning
M82 ;set extruder to absolute mode
M107 ;start with the fan off
G28 X0 Y0 ;move X/Y to min endstops
G28 Z0 ;move Z to min endstops
G1 Z15.0 F50 ;move the platform down 15mm
G92 E0 ;zero the extruded length
G1 F200 E3 ;extrude 3mm of feed stock
G92 E0 ;zero the extruded length again
G1 F50
M117 Printing...
G5
;LAYER_COUNT:41
;LAYER:0
M106 S255
M204 S3500
M205 X13 Y13
G0 F1500 X91.111 Y79.44 Z0.1
M204 S2000
;TYPE:SKIRT
G1 F2400 X91.586 Y78.906 E0.01664
G1 X92.118 Y78.427 E0.03331
G1 X92.7 Y78.012 E0.04995
G1 X93.325 Y77.663 E0.06661
G1 X93.985 Y77.387 E0.08327
G1 X94.671 Y77.186 E0.09991
G1 X95.376 Y77.063 E0.11658
G1 X96.124 Y77.019 E0.13402
G1 X113.876 Y77.02 E0.54732
G1 X114.591 Y77.06 E0.564
G1 X115.296 Y77.179 E0.58064
G1 X115.983 Y77.377 E0.59729
G1 X116.644 Y77.65 E0.61394
G1 X117.271 Y77.995 E0.6306
G1 X117.855 Y78.407 E0.64724
G1 X118.39 Y78.883 E0.66391
G1 X118.868 Y79.415 E0.68056
G1 X119.283 Y79.997 E0.69721
G1 X119.632 Y80.621 E0.71385
G1 X119.908 Y81.281 E0.73051
G1 X120.109 Y81.968 E0.74717
G1 X120.232 Y82.672 E0.76381
G1 X120.276 Y83.42 E0.78126
G1 X120.276 Y126.581 E1.78614
G1 X120.236 Y127.295 E1.80279
G1 X120.117 Y128 E1.81943
G1 X119.919 Y128.688 E1.8361
G1 X119.646 Y129.349 E1.85275
G1 X119.302 Y129.976 E1.8694
G1 X118.889 Y130.56 E1.88605
G1 X118.414 Y131.094 E1.90269
G1 X117.882 Y131.573 E1.91936
G1 X117.3 Y131.988 E1.936
G1 X116.675 Y132.337 E1.95267
G1 X116.015 Y132.613 E1.96932
G1 X115.329 Y132.814 E1.98597
G1 X114.624 Y132.937 E2.00263
G1 X113.876 Y132.981 E2.02007
G1 X96.124 Y132.981 E2.43338
G1 X95.41 Y132.941 E2.45003
G1 X94.705 Y132.822 E2.46667
G1 X94.017 Y132.624 E2.48334
G1 X93.356 Y132.351 E2.49999
G1 X92.729 Y132.007 E2.51664
G1 X92.145 Y131.594 E2.5333
G1 X91.611 Y131.119 E2.54994
G1 X91.132 Y130.587 E2.5666
G1 X90.717 Y130.005 E2.58324
G1 X90.368 Y129.38 E2.59991
G1 X90.092 Y128.72 E2.61657
G1 X89.891 Y128.034 E2.63321
G1 X89.768 Y127.329 E2.64987
G1 X89.724 Y126.581 E2.66732
G1 X89.724 Y83.419 E3.67222
G1 X89.764 Y82.705 E3.68887
G1 X89.883 Y82 E3.70551
G1 X90.081 Y81.312 E3.72218
G1 X90.354 Y80.651 E3.73883
G1 X90.698 Y80.024 E3.75548
G1 X91.111 Y79.44 E3.77214
M204 S3500
G0 F1500 X91.666 Y79.646
M204 S2000
G1 F2400 X92.137 Y79.151 E3.78804
G1 X92.663 Y78.715 E3.80395
G1 X93.236 Y78.343 E3.81986
G1 X93.849 Y78.04 E3.83578
G1 X94.492 Y77.812 E3.85166
G1 X95.158 Y77.659 E3.86757
G1 X96.124 Y77.579 E3.89014
G1 X113.876 Y77.58 E4.30344
G1 X114.558 Y77.62 E4.31935
G1 X115.231 Y77.739 E4.33526
G1 X115.885 Y77.937 E4.35117
G1 X116.512 Y78.209 E4.36708
G1 X117.103 Y78.552 E4.38299
G1 X117.649 Y78.962 E4.39889
G1 X118.144 Y79.434 E4.41481
G1 X118.58 Y79.959 E4.4307
G1 X118.952 Y80.532 E4.4466
G1 X119.255 Y81.145 E4.46252
G1 X119.484 Y81.789 E4.47844
G1 X119.636 Y82.455 E4.49434
G1 X119.716 Y83.42 E4.51689
G1 X119.716 Y126.581 E5.52177
G1 X119.676 Y127.263 E5.53767
G1 X119.557 Y127.936 E5.55358
G1 X119.36 Y128.59 E5.56949
G1 X119.087 Y129.217 E5.58541
G1 X118.744 Y129.807 E5.6013
G1 X118.334 Y130.354 E5.61721
G1 X117.863 Y130.849 E5.63312
G1 X117.337 Y131.285 E5.64903
G1 X116.764 Y131.657 E5.66493
G1 X116.151 Y131.96 E5.68085
G1 X115.508 Y132.188 E5.69674
G1 X114.842 Y132.341 E5.71265
G1 X113.876 Y132.421 E5.73521
G1 X96.124 Y132.421 E6.14852
G1 X95.442 Y132.381 E6.16442
G1 X94.769 Y132.262 E6.18033
G1 X94.115 Y132.065 E6.19624
G1 X93.488 Y131.792 E6.21216
G1 X92.898 Y131.449 E6.22805
G1 X92.351 Y131.039 E6.24396
G1 X91.856 Y130.568 E6.25987
G1 X91.42 Y130.042 E6.27578
G1 X91.048 Y129.469 E6.29168
G1 X90.745 Y128.856 E6.3076
G1 X90.517 Y128.213 E6.32349
G1 X90.364 Y127.547 E6.3394
G1 X90.284 Y126.581 E6.36196
G1 X90.284 Y83.419 E7.36687
G1 X90.324 Y82.737 E7.38277
G1 X90.443 Y82.064 E7.39868
G1 X90.64 Y81.41 E7.41459
G1 X90.913 Y80.783 E7.43051
G1 X91.256 Y80.193 E7.4464
G1 X91.666 Y79.646 E7.46231
M204 S3500
G0 F1500 X91.813 Y80.37
M204 S2000
G1 F2400 X92.22 Y79.864 E7.47743
G1 X92.686 Y79.411 E7.49256
G1 X93.204 Y79.02 E7.50767
G1 X93.767 Y78.694 E7.52282
G1 X94.365 Y78.441 E7.53794
G1 X94.989 Y78.262 E7.55305
G1 X95.631 Y78.162 E7.56818
G1 X96.124 Y78.139 E7.57967
G1 X113.876 Y78.14 E7.99297
G1 X114.525 Y78.18 E8.00811
G1 X115.163 Y78.299 E8.02322
G1 X115.782 Y78.496 E8.03834
G1 X116.373 Y78.768 E8.05349
G1 X116.925 Y79.109 E8.0686
G1 X117.431 Y79.516 E8.08372
G1 X117.884 Y79.982 E8.09885
G1 X118.276 Y80.501 E8.11399
G1 X118.601 Y81.063 E8.1291
G1 X118.854 Y81.661 E8.14422
G1 X119.033 Y82.286 E8.15936
G1 X119.133 Y82.928 E8.17449
G1 X119.156 Y83.42 E8.18595
G1 X119.156 Y126.581 E9.19083
G1 X119.116 Y127.229 E9.20595
G1 X118.997 Y127.868 E9.22108
G1 X118.8 Y128.487 E9.2362
G1 X118.529 Y129.077 E9.25132
G1 X118.187 Y129.63 E9.26646
G1 X117.78 Y130.136 E9.28158
G1 X117.314 Y130.589 E9.29671
G1 X116.796 Y130.98 E9.31182
G1 X116.233 Y131.306 E9.32696
G1 X115.635 Y131.559 E9.34208
G1 X115.011 Y131.738 E9.3572
G1 X114.369 Y131.838 E9.37232
G1 X113.876 Y131.861 E9.38381
G1 X96.124 Y131.861 E9.79712
G1 X95.476 Y131.821 E9.81223
G1 X94.837 Y131.702 E9.82737
G1 X94.218 Y131.505 E9.84249
G1 X93.628 Y131.234 E9.85761
G1 X93.075 Y130.892 E9.87274
G1 X92.569 Y130.485 E9.88786
G1 X92.116 Y130.019 E9.90299
G1 X91.725 Y129.501 E9.9181
G1 X91.399 Y128.938 E9.93325
G1 X91.146 Y128.34 E9.94837
G1 X90.967 Y127.716 E9.96348
G1 X90.867 Y127.074 E9.97861
G1 X90.844 Y126.581 E9.9901
G1 X90.844 Y83.419 E10.995
G1 X90.884 Y82.771 E11.01012
G1 X91.003 Y82.132 E11.02525
G1 X91.2 Y81.513 E11.04037
G1 X91.471 Y80.923 E11.05549
G1 X91.813 Y80.37 E11.07063
M204 S3500
G1 F2400 E4.07063
G0 F1500 X95.45 Y84.264
G0 X96.969 Y84.264
G0 X112.485 Y125.19
M204 S2000
;TYPE:WALL-INNER
G1 F2400 E11.07063
G1 F1500 X97.515 Y125.19 E11.41916
G1 X97.515 Y84.81 E12.35929
G1 X112.485 Y84.81 E12.70783
G1 X112.485 Y125.19 E13.64796
M204 S3500
G0 X113.045 Y125.75
M204 S2000
G1 X96.955 Y125.75 E14.02257
G1 X96.955 Y84.25 E14.98877
G1 X113.045 Y84.25 E15.36338
G1 X113.045 Y125.75 E16.32959
M204 S3500
G0 X113.605 Y126.31
M204 S2000
;TYPE:WALL-OUTER
G1 X96.395 Y126.31 E16.73027
G1 X96.395 Y83.69 E17.72256
G1 X113.605 Y83.69 E18.12324
G1 X113.605 Y126.31 E19.11552
M204 S3500
G0 X113.405 Y126.31
G0 X112.975 Y125.68
G0 X111.935 Y124.64
M204 S2000
;TYPE:SKIN
G1 X98.065 Y124.64 E19.43845
G1 X98.065 Y85.36 E20.35297
G1 X111.935 Y85.36 E20.67589
G1 X111.935 Y124.64 E21.59041
M204 S3500
G0 X99.036 Y124.379
M204 S2000
G1 X98.324 Y123.667 E21.61385
M204 S3500
G0 X98.324 Y122.875
M204 S2000
G1 X99.828 Y124.379 E21.66337
G1 X99.898 Y124.449
M204 S3500
G0 X100.62 Y124.379
M204 S2000
G1 X98.324 Y122.083 E21.73897
G1 X98.254 Y122.013
M204 S3500
G0 X98.324 Y121.291
M204 S2000
G1 X101.412 Y124.379 E21.84065
G1 X101.482 Y124.449
M204 S3500
G0 X102.204 Y124.379
M204 S2000
G1 X98.324 Y120.499 E21.9684
G1 X98.254 Y120.429
M204 S3500
G0 X98.324 Y119.707
M204 S2000
G1 X102.996 Y124.379 E22.12223
G1 X103.066 Y124.449
M204 S3500
G0 X103.788 Y124.379
M204 S2000
G1 X98.324 Y118.915 E22.30214
G1 X98.254 Y118.845
M204 S3500
G0 X98.324 Y118.123
M204 S2000
G1 X104.58 Y124.379 E22.50812
G1 X104.65 Y124.449
M204 S3500
G0 X105.372 Y124.379
M204 S2000
G1 X98.324 Y117.331 E22.74018
G1 X98.254 Y117.261
M204 S3500
G0 X98.324 Y116.539
M204 S2000
G1 X106.164 Y124.379 E22.99832
G1 X106.234 Y124.449
M204 S3500
G0 X106.956 Y124.379
M204 S2000
G1 X98.324 Y115.747 E23.28254
G1 X98.254 Y115.677
M204 S3500
G0 X98.324 Y114.955
M204 S2000
G1 X107.748 Y124.379 E23.59283
G1 X107.818 Y124.449
M204 S3500
G0 X108.54 Y124.379
M204 S2000
G1 X98.324 Y114.163 E23.9292
G1 X98.254 Y114.093
M204 S3500
G0 X98.324 Y113.371
M204 S2000
G1 X109.332 Y124.379 E24.29165
G1 X109.402 Y124.449
M204 S3500
G0 X110.124 Y124.379
M204 S2000
G1 X98.324 Y112.579 E24.68017
G1 X98.254 Y112.509
M204 S3500
G0 X98.324 Y111.787
M204 S2000
G1 X110.916 Y124.379 E25.09478
G1 X110.986 Y124.449
M204 S3500
G0 X111.675 Y124.346
M204 S2000
G1 X98.324 Y110.995 E25.53437
G1 X98.254 Y110.925
M204 S3500
G0 X98.324 Y110.204
M204 S2000
G1 X111.675 Y123.554 E25.97395
G1 X111.745 Y123.624
M204 S3500
G0 X111.675 Y122.762
M204 S2000
G1 X98.324 Y109.412 E26.41352
G1 X98.254 Y109.342
M204 S3500
G0 X98.324 Y108.62
M204 S2000
G1 X111.675 Y121.97 E26.8531
G1 X111.745 Y122.04
M204 S3500
G0 X111.675 Y121.179
M204 S2000
G1 X98.324 Y107.828 E27.29269
G1 X98.254 Y107.758
M204 S3500
G0 X98.324 Y107.036
M204 S2000
G1 X111.675 Y120.387 E27.73228
G1 X111.745 Y120.457
M204 S3500
G0 X111.675 Y119.595
M204 S2000
G1 X98.324 Y106.244 E28.17188
G1 X98.254 Y106.174
M204 S3500
G0 X98.324 Y105.452
M204 S2000
G1 X111.675 Y118.803 E28.61147
G1 X111.745 Y118.873
M204 S3500
G0 X111.675 Y118.011
M204 S2000
G1 X98.323 Y104.659 E29.0511
G1 X98.253 Y104.589
M204 S3500
G0 X98.323 Y103.867
M204 S2000
G1 X111.675 Y117.219 E29.49072
G1 X111.745 Y117.289
M204 S3500
G0 X111.675 Y116.427
M204 S2000
G1 X98.323 Y103.075 E29.93035
G1 X98.253 Y103.005
M204 S3500
G0 X98.323 Y102.283
M204 S2000
G1 X111.675 Y115.635 E30.36997
G1 X111.745 Y115.705
M204 S3500
G0 X111.675 Y114.843
M204 S2000
G1 X98.323 Y101.491 E30.8096
G1 X98.253 Y101.421
M204 S3500
G0 X98.323 Y100.699
M204 S2000
G1 X111.675 Y114.051 E31.24923
G1 X111.745 Y114.121
M204 S3500
G0 X111.675 Y113.259
M204 S2000
G1 X98.323 Y99.907 E31.68885
G1 X98.253 Y99.837
M204 S3500
G0 X98.323 Y99.115
M204 S2000
G1 X111.675 Y112.467 E32.12848
G1 X111.745 Y112.537
M204 S3500
G0 X111.675 Y111.675
M204 S2000
G1 X98.323 Y98.323 E32.5681
G1 X98.253 Y98.253
M204 S3500
G0 X98.323 Y97.531
M204 S2000
G1 X111.675 Y110.883 E33.00773
G1 X111.745 Y110.953
M204 S3500
G0 X111.675 Y110.091
M204 S2000
G1 X98.323 Y96.739 E33.44736
G1 X98.253 Y96.669
M204 S3500
G0 X98.323 Y95.948
M204 S2000
G1 X111.675 Y109.299 E33.88697
G1 X111.745 Y109.369
M204 S3500
G0 X111.675 Y108.507
M204 S2000
G1 X98.323 Y95.156 E34.32658
G1 X98.253 Y95.086
M204 S3500
G0 X98.323 Y94.364
M204 S2000
G1 X111.675 Y107.715 E34.76619
G1 X111.745 Y107.785
M204 S3500
G0 X111.675 Y106.923
M204 S2000
G1 X98.323 Y93.572 E35.20579
G1 X98.253 Y93.502
M204 S3500
G0 X98.323 Y92.78
M204 S2000
G1 X111.675 Y106.131 E35.6454
G1 X111.745 Y106.201
M204 S3500
G0 X111.675 Y105.339
M204 S2000
G1 X98.323 Y91.988 E36.08501
G1 X98.253 Y91.918
M204 S3500
G0 X98.323 Y91.196
M204 S2000
G1 X111.674 Y104.547 E36.52461
G1 X111.744 Y104.617
M204 S3500
G0 X111.674 Y103.755
M204 S2000
G1 X98.323 Y90.404 E36.9642
G1 X98.253 Y90.334
M204 S3500
G0 X98.323 Y89.612
M204 S2000
G1 X111.674 Y102.963 E37.40379
G1 X111.744 Y103.033
M204 S3500
G0 X111.674 Y102.171
M204 S2000
G1 X98.323 Y88.82 E37.84339
G1 X98.253 Y88.75
M204 S3500
G0 X98.323 Y88.028
M204 S2000
G1 X111.674 Y101.379 E38.28298
G1 X111.744 Y101.449
M204 S3500
G0 X111.674 Y100.587
M204 S2000
G1 X98.323 Y87.236 E38.72257
G1 X98.253 Y87.166
M204 S3500
G0 X98.323 Y86.444
M204 S2000
G1 X111.674 Y99.795 E39.16217
G1 X111.744 Y99.865
M204 S3500
G0 X111.674 Y99.003
M204 S2000
G1 X98.323 Y85.652 E39.60176
G1 X98.253 Y85.582
M204 S3500
G0 X99.083 Y85.62
M204 S2000
G1 X111.674 Y98.211 E40.01633
G1 X111.744 Y98.281
M204 S3500
G0 X111.674 Y97.419
M204 S2000
G1 X99.875 Y85.62 E40.40482
G1 X99.805 Y85.55
M204 S3500
G0 X100.667 Y85.62
M204 S2000
G1 X111.674 Y96.627 E40.76723
G1 X111.744 Y96.697
M204 S3500
G0 X111.674 Y95.835
M204 S2000
G1 X101.459 Y85.62 E41.10357
G1 X101.389 Y85.55
M204 S3500
G0 X102.251 Y85.62
M204 S2000
G1 X111.674 Y95.043 E41.41383
G1 X111.744 Y95.113
M204 S3500
G0 X111.674 Y94.251
M204 S2000
G1 X103.043 Y85.62 E41.69802
G1 X102.973 Y85.55
M204 S3500
G0 X103.835 Y85.62
M204 S2000
G1 X111.674 Y93.459 E41.95612
G1 X111.744 Y93.529
M204 S3500
G0 X111.674 Y92.667
M204 S2000
G1 X104.627 Y85.62 E42.18815
G1 X104.557 Y85.55
M204 S3500
G0 X105.419 Y85.62
M204 S2000
G1 X111.674 Y91.875 E42.3941
G1 X111.744 Y91.945
M204 S3500
G0 X111.674 Y91.083
M204 S2000
G1 X106.21 Y85.62 E42.57399
G1 X106.14 Y85.55
M204 S3500
G0 X107.002 Y85.62
M204 S2000
G1 X111.674 Y90.291 E42.7278
G1 X111.744 Y90.361
M204 S3500
G0 X111.674 Y89.499
M204 S2000
G1 X107.794 Y85.62 E42.85554
G1 X107.724 Y85.55
M204 S3500
G0 X108.586 Y85.62
M204 S2000
G1 X111.674 Y88.707 E42.9572
G1 X111.744 Y88.777
M204 S3500
G0 X111.674 Y87.916
M204 S2000
G1 X109.378 Y85.62 E43.0328
G1 X109.308 Y85.55
M204 S3500
G0 X110.17 Y85.62
M204 S2000
G1 X111.674 Y87.124 E43.08232
G1 X111.744 Y87.194
M204 S3500
G0 X111.674 Y86.332
M204 S2000
G1 X110.962 Y85.62 E43.10576
M204 S3500
G0 X112.885 Y125.59
;TIME_ELAPSED:79.223117
;LAYER:1
M140 S65
G0 F2250 X112.885 Y125.59 Z0.2
M204 S2000
;TYPE:WALL-INNER
G1 X97.115 Y125.59 E43.36802
G1 X97.115 Y84.41 E44.05284
G1 X112.885 Y84.41 E44.3151
G1 X112.885 Y125.59 E44.99993
M204 S3500
G0 X113.285 Y125.99
M204 S2000
G1 X96.715 Y125.99 E45.27549
G1 X96.715 Y84.01 E45.97362
G1 X113.285 Y84.01 E46.24918
G1 X113.285 Y125.99 E46.94731
M204 S3500
G0 X113.685 Y126.39
M204 S2000
;TYPE:WALL-OUTER
G1 X96.315 Y126.39 E47.23617
G1 X96.315 Y83.61 E47.9476
G1 X113.685 Y83.61 E48.23647
G1 X113.685 Y126.39 E48.9479
M204 S3500
G0 X113.485 Y126.39
G0 X113.215 Y125.92
G0 X112.495 Y125.2
M204 S2000
;TYPE:SKIN
G1 F1350 X97.505 Y125.2 E49.19719
G1 X97.505 Y84.8 E49.86904
G1 X112.495 Y84.8 E50.11833
G1 X112.495 Y125.2 E50.79018
M204 S3500
G0 F2250 X112.002 Y125.019
M204 S2000
G1 F1350 X112.314 Y124.707 E50.79752
M204 S3500
G0 F2250 X112.314 Y124.141
M204 S2000
G1 F1350 X111.437 Y125.019 E50.81816
G1 X111.367 Y125.089
M204 S3500
G0 F2250 X110.871 Y125.019
M204 S2000
G1 F1350 X112.314 Y123.576 E50.85209
G1 X112.384 Y123.506
M204 S3500
G0 F2250 X112.314 Y123.01
M204 S2000
G1 F1350 X110.305 Y125.019 E50.89934
G1 X110.235 Y125.089
M204 S3500
G0 F2250 X109.74 Y125.019
M204 S2000
G1 F1350 X112.314 Y122.444 E50.95989
G1 X112.384 Y122.374
M204 S3500
G0 F2250 X112.314 Y121.879
M204 S2000
G1 F1350 X109.174 Y125.019 E51.03374
G1 X109.104 Y125.089
M204 S3500
G0 F2250 X108.608 Y125.019
M204 S2000
G1 F1350 X112.314 Y121.313 E51.1209
G1 X112.384 Y121.243
M204 S3500
G0 F2250 X112.314 Y120.747
M204 S2000
G1 F1350 X108.043 Y125.019 E51.22136
G1 X107.973 Y125.089
M204 S3500
G0 F2250 X107.477 Y125.019
M204 S2000
G1 F1350 X112.314 Y120.181 E51.33513
G1 X112.384 Y120.111
M204 S3500
G0 F2250 X112.314 Y119.616
M204 S2000
G1 F1350 X106.911 Y125.019 E51.4622
G1 X106.841 Y125.089
M204 S3500
G0 F2250 X106.346 Y125.019
M204 S2000
G1 F1350 X112.314 Y119.05 E51.60257
G1 X112.384 Y118.98
M204 S3500
G0 F2250 X112.314 Y118.484
M204 S2000
G1 F1350 X105.78 Y125.019 E51.75625
G1 X105.71 Y125.089
M204 S3500
G0 F2250 X105.214 Y125.019
M204 S2000
G1 F1350 X112.314 Y117.919 E51.92323
G1 X112.384 Y117.849
M204 S3500
G0 F2250 X112.314 Y117.353
M204 S2000
G1 F1350 X104.648 Y125.019 E52.10352
G1 X104.578 Y125.089
M204 S3500
G0 F2250 X104.083 Y125.019
M204 S2000
G1 F1350 X112.314 Y116.787 E52.29712
G1 X112.384 Y116.717
M204 S3500
G0 F2250 X112.314 Y116.222
M204 S2000
G1 F1350 X103.517 Y125.019 E52.50401
G1 X103.447 Y125.089
M204 S3500
G0 F2250 X102.951 Y125.019
M204 S2000
G1 F1350 X112.314 Y115.656 E52.72421
G1 X112.384 Y115.586
M204 S3500
G0 F2250 X112.314 Y115.09
M204 S2000
G1 F1350 X102.386 Y125.019 E52.95771
G1 X102.316 Y125.089
M204 S3500
G0 F2250 X101.82 Y125.019
M204 S2000
G1 F1350 X112.314 Y114.525 E53.20452
G1 X112.384 Y114.455
M204 S3500
G0 F2250 X112.314 Y113.959
M204 S2000
G1 F1350 X101.254 Y125.019 E53.46463
G1 X101.184 Y125.089
